!!!COM: Mozart, Wolfgang Amadeus
!!!OTL: Musikalische Würfelspiele, Kontre-Tänze
!!!SCA: K<sup>6</sup> Anh. C30.01 (K<sup>3</sup> Anh. 294d)
**kern	**kern
*staff2	*staff2
*clefF4	*clefG2
*M2/4	*M2/4
*MM110	*MM110
*>[A,A1,A,A2,B]	*>[A,A1,A,A2,B]
*>norep[A,A2,B]	*>norep[A,A2,B]
*>A	*>A
=142	=142
8C	8cc
16C	8g
16C	.
8C	8cc
8GG	8ee
=14	=14
4C	8gg
.	8ee
4r	8cc
.	8cc
=57	=57
8G	8ff
16GG	8ff
16AA	.
16BB	8dd
16C	.
16D	8dd
16BB	.
=71	=71
16C	8e 8cc
16CC	.
16EE	8e 8cc
16GG	.
16C	4e 4cc
16E	.
16G	.
16E	.
=111	=111
4D	8d
.	16f#
.	16a
4D	8dd
.	8ff#
=125	=125
4G	16bb
.	16ddd
.	16ccc
.	16bb
4BB	16aa
.	16gg
.	16ff#
.	16gg
=49	=49
4C	16ee
.	16cc
.	16b
.	16a
8D	16g
.	16b
8DD	16f#
.	16a
=115	=115
*>A1	*>A1
4GG	4g 4b 4gg
16G	4r
16F	.
16E	.
16D	.
=115:|!	=115:|!
*>A2	*>A2
4GG	4g 4b 4gg
16GG	4r
16AA	.
16BB	.
16C#	.
=144||	=144||
*>B	*>B
4D	8d
.	16f#
.	16a
4D	8dd
.	8ff#
=124	=124
4G	8b
.	8d
4GG	8gg
.	8bb
=72	=72
16C	4ee
16E	.
16G	.
16E	.
16C	8cc
16E	.
16G	8cc
16E	.
=19	=19
4GG	16dd
.	16b
.	16cc
.	16a
4r	16g
.	16gg
.	16ff
.	16dd
=134	=134
4C	16cc
.	16ee
.	16gg
.	16ee
4r	16cc
.	16g
.	16cc
.	16ee
=32	=32
4C	8ccc
.	8gg
4r	8ee
.	8cc
=108	=108
4G	16ff
.	16aa
.	16ff
.	16dd
4GG	16b
.	16dd
.	16b
.	16g
=74	=74
4C	4cc
4CC	4c
==	==
*-	*-
